icons/op-more-24.svg

<svg width="24" height="24" viewBox="0 0 24 24" fill="none" xmlns="http://www.w3.org/2000/svg">
<path d="M4 18V6H7.125V7.2H5.5625V16.8H7.125V18H4ZM7.8125 14.9684C7.8125 14.6526 7.90625 14.4 8.0625 14.2421C8.25 14.0526 8.46875 13.9579 8.8125 13.9579C9.125 13.9579 9.375 14.0526 9.53125 14.2421C9.71875 14.4316 9.78125 14.6842 9.78125 14.9684C9.78125 15.3158 9.71875 15.5684 9.53125 15.7263C9.375 15.9158 9.125 16.0105 8.8125 16.0105C8.46875 16.0105 8.25 15.9158 8.0625 15.7579C7.90625 15.5684 7.8125 15.3158 7.8125 14.9684ZM11.0312 14.9684C11.0312 14.6526 11.0938 14.4 11.2812 14.2421C11.4375 14.0526 11.6875 13.9579 12 13.9579C12.3125 13.9579 12.5625 14.0526 12.75 14.2421C12.9062 14.4316 13 14.6842 13 14.9684C13 15.3158 12.9062 15.5684 12.75 15.7263C12.5625 15.9158 12.3125 16.0105 12 16.0105C11.6875 16.0105 11.4375 15.9158 11.2812 15.7579C11.0938 15.5684 11.0312 15.3158 11.0312 14.9684ZM14.2188 14.9684C14.2188 14.6526 14.3125 14.4 14.4688 14.2421C14.6562 14.0526 14.875 13.9579 15.1875 13.9579C15.5312 13.9579 15.7812 14.0526 15.9375 14.2421C16.125 14.4316 16.1875 14.6842 16.1875 14.9684C16.1875 15.3158 16.0938 15.5684 15.9375 15.7263C15.7812 15.9158 15.5312 16.0105 15.1875 16.0105C14.875 16.0105 14.6562 15.9158 14.4688 15.7579C14.3125 15.5684 14.2188 15.3158 14.2188 14.9684ZM16.875 16.8H18.4375V7.2H16.875V6H20V18H16.875V16.8Z" fill="black"/>
</svg>

<svg xmlns="http://www.w3.org/2000/svg" width="24" height="24" viewBox="0 0 24 24"><path d="M4 18V6h3.125v1.2H5.562v9.6h1.563V18H4Zm3.812-3.032c0-.315.094-.568.25-.726.188-.189.407-.284.75-.284.313 0 .563.095.719.284.188.19.25.442.25.726 0 .348-.062.6-.25.758-.156.19-.406.285-.719.285-.343 0-.562-.095-.75-.253-.156-.19-.25-.442-.25-.79Zm3.219 0c0-.315.063-.568.25-.726.157-.189.407-.284.719-.284s.562.095.75.284c.156.19.25.442.25.726 0 .348-.094.6-.25.758-.188.19-.438.285-.75.285s-.562-.095-.719-.253c-.187-.19-.25-.442-.25-.79Zm3.188 0c0-.315.093-.568.25-.726.187-.189.406-.284.719-.284.343 0 .593.095.75.284.187.19.25.442.25.726 0 .348-.094.6-.25.758-.157.19-.407.285-.75.285-.313 0-.532-.095-.719-.253-.157-.19-.25-.442-.25-.79Zm2.656 1.832h1.563V7.2h-1.563V6H20v12h-3.125v-1.2Z"/></svg>
